svgs/duotone/paint-roller.svg

<svg xmlns="http://www.w3.org/2000/svg" viewBox="0 0 512 512"><!--! Font Awesome Pro 6.6.0 by @fontawesome - https://fontawesome.com License - https://fontawesome.com/license (Commercial License) Copyright 2024 Fonticons, Inc. --><path class="fa-secondary" style="fill:var(--fa-secondary-color,inherit);opacity:var(--fa-secondary-opacity,.4);" d="M160 352l0 128c0 17.7 14.3 32 32 32l64 0c17.7 0 32-14.3 32-32l0-128c0-17.7-14.3-32-32-32l0-16c0-8.8 7.2-16 16-16l144 0c53 0 96-43 96-96l0-32c0-53-43-96-96-96l0 64c17.7 0 32 14.3 32 32l0 32c0 17.7-14.3 32-32 32l-144 0c-44.2 0-80 35.8-80 80l0 16c-17.7 0-32 14.3-32 32z"/><path class="fa-primary" style="fill:var(--fa-primary-color,inherit);opacity:var(--fa-primary-opacity,1);" d="M64 0C28.7 0 0 28.7 0 64l0 64c0 35.3 28.7 64 64 64l288 0c35.3 0 64-28.7 64-64l0-64c0-35.3-28.7-64-64-64L64 0z"/></svg>

<svg xmlns="http://www.w3.org/2000/svg" viewBox="0 0 512 512"><!--! Font Awesome Pro 6.4.2 by @fontawesome - https://fontawesome.com License - https://fontawesome.com/license (Commercial License) Copyright 2023 Fonticons, Inc. --><path class="fa-primary" style="fill:var(--fa-primary-color,inherit);opacity:var(--fa-primary-opacity,1);" d="M64 0C28.7 0 0 28.7 0 64v64c0 35.3 28.7 64 64 64H352c35.3 0 64-28.7 64-64V64c0-35.3-28.7-64-64-64H64z"/><path class="fa-secondary" style="fill:var(--fa-secondary-color,inherit);opacity:var(--fa-secondary-opacity,.4);" d="M512 160c0-53-43-96-96-96v64c17.7 0 32 14.3 32 32v32c0 17.7-14.3 32-32 32H272c-44.2 0-80 35.8-80 80v16c-17.7 0-32 14.3-32 32V480c0 17.7 14.3 32 32 32h64c17.7 0 32-14.3 32-32V352c0-17.7-14.3-32-32-32V304c0-8.8 7.2-16 16-16H416c53 0 96-43 96-96V160z"/></svg>
